public/images/patterns/bathroom-floor-thumbnail.svg

<svg xmlns="http://www.w3.org/2000/svg" viewBox="0 0 80 80">
    <path fill="#ffffff" fill-rule="evenodd"
        d="M0 0h40v40H0V0zm40 40h40v40H40V40zm0-40h2l-2 2V0zm0 4l4-4h2l-6 6V4zm0 4l8-8h2L40 10V8zm0 4L52 0h2L40 14v-2zm0 4L56 0h2L40 18v-2zm0 4L60 0h2L40 22v-2zm0 4L64 0h2L40 26v-2zm0 4L68 0h2L40 30v-2zm0 4L72 0h2L40 34v-2zm0 4L76 0h2L40 38v-2zm0 4L80 0v2L42 40h-2zm4 0L80 4v2L46 40h-2zm4 0L80 8v2L50 40h-2zm4 0l28-28v2L54 40h-2zm4 0l24-24v2L58 40h-2zm4 0l20-20v2L62 40h-2zm4 0l16-16v2L66 40h-2zm4 0l12-12v2L70 40h-2zm4 0l8-8v2l-6 6h-2zm4 0l4-4v2l-2 2h-2z" />
</svg>

<svg width="120" height="120" viewBox="0 0 120 120" fill="none" xmlns="http://www.w3.org/2000/svg">
    <path fill-rule="evenodd" clip-rule="evenodd" d="M0 0H40V40H0V0ZM40 40H80V80H40V40ZM40 0H42L40 2V0ZM40 4L44 0H46L40 6V4ZM40 8L48 0H50L40 10V8ZM40 12L52 0H54L40 14V12ZM40 16L56 0H58L40 18V16ZM40 20L60 0H62L40 22V20ZM40 24L64 0H66L40 26V24ZM40 28L68 0H70L40 30V28ZM40 32L72 0H74L40 34V32ZM40 36L76 0H78L40 38V36ZM40 40L80 0V2L42 40H40ZM44 40L80 4V6L46 40H44ZM48 40L80 8V10L50 40H48ZM52 40L80 12V14L54 40H52ZM56 40L80 16V18L58 40H56ZM60 40L80 20V22L62 40H60ZM64 40L80 24V26L66 40H64ZM68 40L80 28V30L70 40H68ZM72 40L80 32V34L74 40H72ZM76 40L80 36V38L78 40H76Z" fill="white"/>
    <path d="M80 82L42 120H40L80 80V82ZM40 82V84L44 80H46L40 86V88L48 80H50L40 90V92L52 80H54L40 94V96L56 80H58L40 98V100L60 80H62L40 102V104L64 80H66L40 106V108L68 80H70L40 110V112L72 80H74L40 114V116L76 80H78L40 118V120H0V80H42L40 82ZM80 84V86L46 120H44L80 84ZM80 88V90L50 120H48L80 88ZM80 92V94L54 120H52L80 92ZM80 96V98L58 120H56L80 96ZM80 100V102L62 120H60L80 100ZM80 104V106L66 120H64L80 104ZM80 108V110L70 120H68L80 108ZM80 112V114L74 120H72L80 112ZM80 116V118L78 120H76L80 116Z" fill="white"/>
    <path d="M120 0V40H80V0H120Z" fill="white"/>
    <path d="M120 80V120H80V80H120Z" fill="white"/>
    </svg>
